www/assets/icons/slow_motion_video.svg

<svg width="24" height="24" viewBox="0 0 24 24" xmlns="http://www.w3.org/2000/svg" fill='currentColor'><path d="M13.025 9.7898L9.97502 7.4998V16.4998L13.025 14.2098L15.975 11.9998L13.025 9.7898ZM13.025 9.7898L9.97502 7.4998V16.4998L13.025 14.2098L15.975 11.9998L13.025 9.7898ZM13.025 9.7898L9.97502 7.4998V16.4998L13.025 14.2098L15.975 11.9998L13.025 9.7898ZM10.975 4.0698V2.0498C8.96502 2.2498 7.13502 3.0498 5.65502 4.2598L7.07502 5.6898C8.18502 4.8298 9.51502 4.2498 10.975 4.0698ZM5.66502 7.0998L4.23502 5.6798C3.02502 7.1598 2.22502 8.9898 2.02502 10.9998H4.04502C4.22502 9.5398 4.80502 8.20981 5.66502 7.0998ZM4.04502 12.9998H2.02502C2.22502 15.0098 3.02502 16.8398 4.23502 18.3198L5.66502 16.8898C4.80502 15.7898 4.22502 14.4598 4.04502 12.9998ZM5.65502 19.7398C7.13502 20.9498 8.97502 21.7498 10.975 21.9498V19.9298C9.51502 19.7498 8.18502 19.1698 7.07502 18.3098L5.65502 19.7398ZM21.975 11.9998C21.975 17.1598 18.055 21.4198 13.025 21.9498V19.9298C16.945 19.4098 19.975 16.0498 19.975 11.9998C19.975 7.9498 16.945 4.5898 13.025 4.0698V2.0498C18.055 2.5798 21.975 6.8398 21.975 11.9998Z"/></svg>

<svg xmlns="http://www.w3.org/2000/svg" width="24" height="24" viewBox="0 0 24 24" fill='currentColor'><path d="M13.025 9.79 9.975 7.5v9l3.05-2.29 2.95-2.21zm0 0L9.975 7.5v9l3.05-2.29 2.95-2.21zm0 0L9.975 7.5v9l3.05-2.29 2.95-2.21zm-2.05-5.72V2.05c-2.01.2-3.84 1-5.32 2.21l1.42 1.43a7.94 7.94 0 0 1 3.9-1.62M5.665 7.1l-1.43-1.42A9.95 9.95 0 0 0 2.025 11h2.02c.18-1.46.76-2.79 1.62-3.9M4.045 13h-2.02c.2 2.01 1 3.84 2.21 5.32l1.43-1.43A7.87 7.87 0 0 1 4.045 13m1.61 6.74a10 10 0 0 0 5.32 2.21v-2.02a7.94 7.94 0 0 1-3.9-1.62zM21.975 12c0 5.16-3.92 9.42-8.95 9.95v-2.02c3.92-.52 6.95-3.88 6.95-7.93s-3.03-7.41-6.95-7.93V2.05c5.03.53 8.95 4.79 8.95 9.95"/></svg>
